svg/Pictogram/pictograms-aem-0006-force_applied_to_hand-one_direction.svg

<?xml version="1.0" encoding="ISO-8859-1" standalone="yes"?>
<svg height="304.014" width="304.015">
  <metadata>
    <rdf:RDF xmlns:cc="http://web.resource.org/cc/" xmlns:dc="http://purl.org/dc/elements/1.1/" xmlns:rdf="http://www.w3.org/1999/02/22-rdf-syntax-ns#">
      <cc:Work rdf:about="">
        <dc:title></dc:title>
        <dc:description></dc:description>
        <dc:subject>
          <rdf:Bag>
            <rdf:li></rdf:li>
          </rdf:Bag>
        </dc:subject>
        <dc:publisher>
          <cc:Agent rdf:about="http://www.unece.org/trans/danger/publi/ghs/pictograms.html">
            <dc:title>Source: UNECE GHS of Classification and Labeling of Chemicals, Source: AEM Pictorial Database, Source: AEM Pictorial Database, Source: AEM Pictorial Database, Source: AEM Pictorial Database</dc:title>
          </cc:Agent>
        </dc:publisher>
        <dc:creator>
          <cc:Agent>
            <dc:title></dc:title>
          </cc:Agent>
        </dc:creator>
        <dc:rights>
          <cc:Agent>
            <dc:title></dc:title>
          </cc:Agent>
        </dc:rights>
        <dc:date></dc:date>
        <dc:format>image/svg+xml</dc:format>
        <dc:type rdf:resource="http://purl.org/dc/dcmitype/StillImage"/>
        <cc:license rdf:resource="http://en.wikipedia.org/wiki/Public_domain"/>
        <dc:language>en</dc:language>
      </cc:Work>
    </rdf:RDF>
  </metadata>
  <defs><marker id="ArrowEnd" markerHeight="3" markerUnits="strokeWidth" markerWidth="4" orient="auto" refX="0" refY="5" viewBox="0 0 10 10"><path d="M 0 0 L 10 5 L 0 10 z"/></marker><marker id="ArrowStart" markerHeight="3" markerUnits="strokeWidth" markerWidth="4" orient="auto" refX="10" refY="5" viewBox="0 0 10 10"><path d="M 10 0 L 0 5 L 10 10 z"/></marker> </defs>
  <g id="g2958" transform="matrix(1.3532768,0,0,1.3532781,-53.207834,-52.192858)">
    <path d="M 179.991 137.655L 221.823 111.448C 221.823 111.448 224.847 120.518 219.808 126.569C 214.769 132.616 180.495 156.303 180.495 156.303L 179.991 137.655" style="stroke:none; fill-rule:evenodd; fill:#000000"/>
    <path d="M 178.48 161.846C 178.48 161.846 194.608 148.745 198.136 148.241C 201.663 147.737 223.839 155.799 223.839 155.799L 223.839 176.463C 223.839 176.463 210.733 175.456 209.726 165.877L 200.151 165.374L 193.097 172.936L 178.48 161.846" style="stroke:none; fill-rule:evenodd; fill:#000000"/>
    <path d="M 195.616 182.006L 180.929 169.913L 116.487 169.913L 116.487 135.362L 63.0654 49.9594L 49.9604 49.9594L 49.9604 126.065C 49.9604 126.065 101.183 191.444 103.382 195.112C 106.409 200.151 128.581 251.057 128.581 251.057C 128.581 251.057 138.284 247.319 140.175 238.709C 142.694 227.241 128.077 196.624 128.077 196.624L 180.495 196.624C 187.55 201.159 207.198 199.713 214.265 196.624C 222.327 193.096 223.839 182.006 223.839 182.006L 195.616 182.006" style="stroke:none; fill-rule:evenodd; fill:#000000"/>
    <path d="M 174.952 49.9594L 174.952 164.87L 121.526 164.87L 121.526 49.9594L 174.952 49.9594zM 166.128 126.627L 157.343 126.62L 157.343 108.788L 139.776 108.788L 139.776 126.62L 130.956 126.616L 148.515 146.182L 166.128 126.627" style="stroke:none; fill-rule:evenodd; fill:#000000"/>
    <path d="M 29.6204 265.393L 2.62042 265.393" style="stroke:#000000; stroke-width:0.5; fill:none"/>
    <path d="M 38.6204 274.393L 38.6204 301.393" style="stroke:#000000; stroke-width:0.5; fill:none"/>
    <path d="M 29.6204 38.6204L 2.62042 38.6204" style="stroke:#000000; stroke-width:0.5; fill:none"/>
    <path d="M 38.6204 29.6204L 38.6204 2.62042" style="stroke:#000000; stroke-width:0.5; fill:none"/>
    <path d="M 274.394 38.6204L 301.394 38.6204" style="stroke:#000000; stroke-width:0.5; fill:none"/>
    <path d="M 265.394 29.6204L 265.394 2.62042" style="stroke:#000000; stroke-width:0.5; fill:none"/>
    <path d="M 274.394 265.393L 301.394 265.393" style="stroke:#000000; stroke-width:0.5; fill:none"/>
    <path d="M 265.394 274.393L 265.394 301.393" style="stroke:#000000; stroke-width:0.5; fill:none"/>
  </g>
</svg>

<svg viewBox="0 0 304.01 304.01"><g transform="matrix(1.35328 0 0 1.35328-53.21-52.19)" fill-rule="evenodd"><path d="m179.99 137.66l41.832-26.21c0 0 3.02 9.07-2.02 15.12-5.04 6.05-39.31 29.734-39.31 29.734l-.504-18.648"/><path d="m178.48 161.85c0 0 16.13-13.1 19.656-13.605 3.527-.504 25.703 7.558 25.703 7.558v20.664c0 0-13.11-1.01-14.11-10.586l-9.575-.503-7.05 7.562-14.617-11.09"/><path d="m195.62 182.01l-14.687-12.09h-64.44v-34.551l-53.42-85.4h-13.1v76.11c0 0 51.22 65.38 53.42 69.05 3.03 5.04 25.2 55.945 25.2 55.945 0 0 9.703-3.738 11.594-12.348 2.519-11.468-12.1-42.09-12.1-42.09h52.42c7.06 4.535 26.703 3.089 33.77 0 8.06-3.528 9.574-14.618 9.574-14.618h-28.22"/><path d="m174.95 49.959v114.91h-53.43v-114.91h53.43m-8.824 76.67l-8.785-.007v-17.832h-17.567v17.832l-8.82-.004 17.559 19.566 17.613-19.555"/></g></svg>
